svgs/light/square-h.svg

<svg xmlns="http://www.w3.org/2000/svg" viewBox="0 0 448 512"><!-- Font Awesome Pro 6.0.0-alpha2 by @fontawesome - https://fontawesome.com License - https://fontawesome.com/license (Commercial License) --><path d="M384 32H64C28.654 32 0 60.654 0 96V416C0 451.346 28.654 480 64 480H384C419.346 480 448 451.346 448 416V96C448 60.654 419.346 32 384 32ZM416 416C416 433.645 401.645 448 384 448H64C46.355 448 32 433.645 32 416V96C32 78.355 46.355 64 64 64H384C401.645 64 416 78.355 416 96V416ZM304 128C295.156 128 288 135.156 288 144V240H160V144C160 135.156 152.844 128 144 128S128 135.156 128 144V368C128 376.844 135.156 384 144 384S160 376.844 160 368V272H288V368C288 376.844 295.156 384 304 384S320 376.844 320 368V144C320 135.156 312.844 128 304 128Z"/></svg>

<svg xmlns="http://www.w3.org/2000/svg" viewBox="0 0 448 512"><!--! Font Awesome Pro 6.0.0-alpha3 by @fontawesome - https://fontawesome.com License - https://fontawesome.com/license (Commercial License) --><path d="M384 32H64C28.65 32 0 60.65 0 96v320c0 35.35 28.65 64 64 64h320c35.35 0 64-28.65 64-64V96C448 60.65 419.3 32 384 32zM416 416c0 17.64-14.36 32-32 32H64c-17.64 0-32-14.36-32-32V96c0-17.64 14.36-32 32-32h320c17.64 0 32 14.36 32 32V416zM304 128C295.2 128 288 135.2 288 144v96H160v-96C160 135.2 152.8 128 144 128S128 135.2 128 144v224C128 376.8 135.2 384 144 384S160 376.8 160 368v-96h128v96c0 8.844 7.156 16 16 16s16-7.156 16-16v-224C320 135.2 312.8 128 304 128z"/></svg>
